icons/communication/comment-plus-24.svg

<svg width="24" height="24" viewBox="0 0 24 24" fill="none" xmlns="http://www.w3.org/2000/svg">
<path d="M12 6C12.4142 6 12.75 6.33579 12.75 6.75V9H15.25C15.6642 9 16 9.33579 16 9.75C16 10.1642 15.6642 10.5 15.25 10.5H12.75V13.25C12.75 13.6642 12.4142 14 12 14C11.5858 14 11.25 13.6642 11.25 13.25V10.5H8.75C8.33579 10.5 8 10.1642 8 9.75C8 9.33579 8.33579 9 8.75 9H11.25V6.75C11.25 6.33579 11.5858 6 12 6Z" fill="black"/>
<path fill-rule="evenodd" clip-rule="evenodd" d="M2.75 2C1.7835 2 1 2.7835 1 3.75V16.25C1 17.2165 1.7835 18 2.75 18H5V20.7183C5 21.8076 6.29633 22.3757 7.09724 21.6374L10.9712 18.0662C11.0173 18.0236 11.0778 18 11.1406 18H21.25C22.2165 18 23 17.2165 23 16.25V3.75C23 2.7835 22.2165 2 21.25 2H2.75ZM2.5 3.75C2.5 3.61193 2.61193 3.5 2.75 3.5H21.25C21.3881 3.5 21.5 3.61193 21.5 3.75V16.25C21.5 16.3881 21.3881 16.5 21.25 16.5H11.1406C10.7011 16.5 10.2776 16.6654 9.95446 16.9633L6.5 20.1478V17.5C6.5 16.9477 6.05228 16.5 5.5 16.5H2.75C2.61193 16.5 2.5 16.3881 2.5 16.25V3.75Z" fill="black"/>
</svg>

<svg xmlns="http://www.w3.org/2000/svg" width="24" height="24"><path d="M12 6a.75.75 0 01.75.75V9h2.5a.75.75 0 010 1.5h-2.5v2.75a.75.75 0 01-1.5 0V10.5h-2.5a.75.75 0 010-1.5h2.5V6.75A.75.75 0 0112 6z"/><path fill-rule="evenodd" d="M2.75 2A1.75 1.75 0 001 3.75v12.5c0 .966.784 1.75 1.75 1.75H5v2.718c0 1.09 1.296 1.658 2.097.92l3.874-3.572a.25.25 0 01.17-.066H21.25A1.75 1.75 0 0023 16.25V3.75A1.75 1.75 0 0021.25 2H2.75zM2.5 3.75a.25.25 0 01.25-.25h18.5a.25.25 0 01.25.25v12.5a.25.25 0 01-.25.25H11.14c-.439 0-.862.165-1.186.463L6.5 20.148V17.5a1 1 0 00-1-1H2.75a.25.25 0 01-.25-.25V3.75z"/></svg>
